src/svg/ticket.svg

<?xml version="1.0" encoding="UTF-8"?>
<svg xmlns="http://www.w3.org/2000/svg" id="Outline" viewBox="0 0 24 24" width="512" height="512"><path d="M16,0h-.13a2.02,2.02,0,0,0-1.941,1.532,2,2,0,0,1-3.858,0A2.02,2.02,0,0,0,8.13,0H8A5.006,5.006,0,0,0,3,5V21a3,3,0,0,0,3,3H8.13a2.02,2.02,0,0,0,1.941-1.532,2,2,0,0,1,3.858,0A2.02,2.02,0,0,0,15.87,24H18a3,3,0,0,0,3-3V5A5.006,5.006,0,0,0,16,0Zm2,22-2.143-.063A4,4,0,0,0,8.13,22H6a1,1,0,0,1-1-1V17H7a1,1,0,0,0,0-2H5V5A3,3,0,0,1,8,2l.143.063A4.01,4.01,0,0,0,12,5a4.071,4.071,0,0,0,3.893-3H16a3,3,0,0,1,3,3V15H17a1,1,0,0,0,0,2h2v4A1,1,0,0,1,18,22Z"/><path d="M13,15H11a1,1,0,0,0,0,2h2a1,1,0,0,0,0-2Z"/></svg>

<svg xmlns="http://www.w3.org/2000/svg" width="512" height="512" viewBox="0 0 24 24"><path d="M16 0h-.13a2 2 0 0 0-1.94 1.53 2 2 0 0 1-3.86 0A2 2 0 0 0 8.13 0H8a5 5 0 0 0-5 5v16a3 3 0 0 0 3 3h2.13a2 2 0 0 0 1.94-1.53 2 2 0 0 1 3.86 0A2 2 0 0 0 15.87 24H18a3 3 0 0 0 3-3V5a5 5 0 0 0-5-5m2 22-2.14-.06a4 4 0 0 0-7.73.06H6a1 1 0 0 1-1-1v-4h2a1 1 0 0 0 0-2H5V5a3 3 0 0 1 3-3l.14.06A4 4 0 0 0 12 5a4.1 4.1 0 0 0 3.9-3h.1a3 3 0 0 1 3 3v10h-2a1 1 0 0 0 0 2h2v4a1 1 0 0 1-1 1"/><path d="M13 15h-2a1 1 0 0 0 0 2h2a1 1 0 0 0 0-2"/></svg>
